X:106
T:Cl. Stewartâ€™s Quadrille. GS.106
M:2/4
L:1/16
Q:1/4=100
S:George Spencer m/s, Leeds,1831
R:.Quadrille
O:England
A:Leeds
N:â€™George Spencerâ€™ is written on the stave after the last double bar.
N:ABC2Win doesnâ€™t like reading Chords, and always messes them up. .
N:$ is conventional dal segno.. pause is written as conventional sign
N:over bar line, ff is written under the double bar $ is written on the
N:stave after the last double bar, Da Capo is written underneath..
H:1831
Z:vmp.Cherri Graebe
K:F major
â€œ$â€AB | c2f2d2f2 | cdcB A2[A2c2] | [G2B2][G2B2][F2A2][F2A2] |\
[C6G6] AB |!
[A2c2]f2d2f2 | cdcB A2c2 |d2f2e2c2 | [A2f2] Hâ€^ffâ€ z ||!
f2 z2e2z2 | f6 d2 | c2c2B2A2 |A2G2 z2 c2 |!
f2 z2 e2 z2 | fcag fedc | BAGF G2c2 | BFGA Bcde |!
fgaf efge | fcde fcdf | cfacâ€™ bgaf | a2g2z2c2 |!
fgaf efge | fcde fcdf | cfacâ€™ =bcâ€™_bg | \
[A2f2][c2a2] â€œ$ Da Capoâ€[A2f2]|]

